dist/images/houses.svg

<svg xmlns="http://www.w3.org/2000/svg" width="90" height="55"><path fill-rule="evenodd" fill="#818181" d="M1.042 52.968h1.197v-25.55l-.629.286a1.067 1.067 0 01-.994-.063 1.005 1.005 0 01-.48-.852v-4.056c0-.392.233-.749.598-.915l3.565-1.623v-6.558c0-.558.464-1.01 1.035-1.01h6.158c.572 0 1.035.452 1.035 1.01v2.814l19.309-8.788a1.06 1.06 0 01.944.034l18.592 10.186c.327.178.528.515.528.88v4.056c0 .359-.195.69-.512.871a1.058 1.058 0 01-1.03.009l-.56-.307v29.576h1.024c.572 0 1.035.453 1.035 1.01 0 .558-.463 1.01-1.035 1.01H1.042a1.023 1.023 0 01-1.035-1.01c0-.557.464-1.01 1.035-1.01zm87.986-9.543h-1.117V18.986l.587.274a.977.977 0 00.927-.061.963.963 0 00.447-.814v-3.88a.963.963 0 00-.557-.875l-3.325-1.552V5.804a.966.966 0 00-.966-.966h-5.743a.967.967 0 00-.966.966v2.692L60.308.091a.964.964 0 00-.882.033l-17.34 9.741a.97.97 0 00-.405.441l1.844 1.035v-.068L59.94 2.05l28.002 13.07v1.748L60.308 3.97a.97.97 0 00-.882.033l-14.481 8.136 1.971 1.108L59.94 5.93l26.04 12.154v25.341H52.314v1.931h36.714a.965.965 0 100-1.931zM64.764 11.061l-.005-.042a.631.631 0 00-.028-.137l-.016-.053-.013-.035-.022-.052-.016-.035a1.01 1.01 0 00-.025-.045l-.023-.039-.026-.038a.833.833 0 00-.03-.04l-.025-.031-.037-.04-.027-.027a.7.7 0 00-.04-.037l-.032-.026-.04-.03-.041-.028-.036-.022-.052-.027-.02-.011-3.339-1.558a.964.964 0 00-.983.099c-.018.009-.035.017-.052.027l-10.388 5.835 1.971 1.108 3.713-2.086v9.488h-.857c0 .356-.167 1.281-.478 1.462-.564.33-.922.197-1.483.244v.225h11.488a.965.965 0 00.966-.966V11.142l-.002-.023-.002-.058zm-7.701 12.118V12.606l3.445-1.936 2.329 1.087v11.422h-5.774zm26.459-3.898l-15.379-7.179a.967.967 0 00-.446-.09.97.97 0 00-.999.965v11.167c0 .534.434.966.966.966h15.45a.965.965 0 00.965-.966v-3.988a.964.964 0 00-.557-.875zm-14.892-4.82l5.793 2.704v6.014H68.63v-8.718zm13.518 8.718h-5.794v-5.112l5.794 2.704v2.408zm.966 3.835h-15.45a.967.967 0 00-.966.965v12.563c0 .534.434.966.966.966h15.45a.965.965 0 00.965-.966V27.979a.966.966 0 00-.965-.965zM68.63 28.945h5.793v10.632H68.63V28.945zm13.518 10.632h-5.794V28.945h5.794v10.632zM63.802 27.014H52.314v1.931h2.818v10.632h-2.818v1.931h11.488a.965.965 0 00.966-.966V27.979a.966.966 0 00-.966-.965zm-.965 12.563h-5.774V28.945h5.774v10.632zm17.41-30.214V6.77h3.812v4.407l-3.814-1.78.002-.034zm-53.189 9.769l.005-.044a.9.9 0 01.019-.102l.011-.041a1.156 1.156 0 01.054-.146l.018-.036.026-.048.025-.04.027-.039.033-.043.027-.032a.805.805 0 01.039-.042c.01-.01.019-.02.03-.029l.042-.038.035-.028.042-.031a1.103 1.103 0 01.083-.051.593.593 0 01.056-.029l.021-.011 3.58-1.629c.357-.163.759-.11 1.055.103.018.009.037.017.055.027l12.776 6.999c.345.189.536.542.528.903v8.106c0 .557-.463 1.01-1.035 1.01H28.089a1.023 1.023 0 01-1.035-1.01V19.217l.001-.024.003-.061zm16.517 6.141l-6.19-3.39v9.919h6.19v-6.529zm-8.261 6.529V20.748l-3.694-2.024-2.496 1.136v11.942h6.19zM6.946 27.726l16.489-7.505c.155-.07.318-.1.478-.094.582-.019 1.07.44 1.07 1.009v11.675c0 .557-.464 1.01-1.035 1.01H7.384a1.024 1.024 0 01-1.036-1.01v-4.17c0-.392.233-.749.598-.915zm15.966-5.039l-6.211 2.827v6.288h6.211v-9.115zM8.419 31.802h6.211v-5.345l-6.211 2.827v2.518zm-1.035 4.009h16.564c.571 0 1.035.452 1.035 1.01v13.134c0 .558-.464 1.01-1.035 1.01H7.384a1.023 1.023 0 01-1.036-1.01V36.821c0-.558.464-1.01 1.036-1.01zm15.528 2.019h-6.211v11.116h6.211V37.83zM8.419 48.946h6.211V37.83H8.419v11.116zm19.67-13.135H44.61c.572 0 1.035.452 1.035 1.01v13.134c0 .558-.463 1.01-1.035 1.01H28.089a1.022 1.022 0 01-1.035-1.01V36.821c0-.558.463-1.01 1.035-1.01zm15.486 2.019h-6.19v11.116h6.19V37.83zM29.124 48.946h6.19V37.83h-6.19v11.116zM10.457 17.358v-2.712H6.37v4.607l4.089-1.861-.002-.034zm39.373 1.996l-17.6-9.642L2.207 23.376v1.828l29.629-13.485a1.059 1.059 0 01.944.034l17.05 9.34v-1.739zm-2.103 33.614V22.291l.001-.032-15.498-8.491L4.31 26.475v26.493h43.417z"/></svg>

<svg 
 xmlns="http://www.w3.org/2000/svg"
 xmlns:xlink="http://www.w3.org/1999/xlink"
 width="90px" height="55px">
<path fill-rule="evenodd"  fill="rgb(129, 129, 129)"
 d="M1.042,52.968 L2.239,52.968 L2.239,27.418 L1.610,27.704 C1.470,27.767 1.321,27.799 1.172,27.799 C0.978,27.799 0.785,27.746 0.616,27.641 C0.317,27.455 0.136,27.134 0.136,26.789 L0.136,22.733 C0.136,22.341 0.369,21.984 0.734,21.818 L4.299,20.195 L4.299,13.637 C4.299,13.079 4.763,12.627 5.334,12.627 L11.492,12.627 C12.064,12.627 12.527,13.079 12.527,13.637 L12.527,16.451 L31.836,7.663 C32.138,7.526 32.490,7.538 32.780,7.697 L51.372,17.883 C51.699,18.061 51.900,18.398 51.900,18.763 L51.900,22.819 C51.900,23.178 51.705,23.509 51.388,23.690 C51.071,23.871 50.679,23.875 50.358,23.699 L49.798,23.392 L49.798,52.968 L50.822,52.968 C51.394,52.968 51.857,53.421 51.857,53.978 C51.857,54.536 51.394,54.988 50.822,54.988 L48.762,54.988 L3.275,54.988 L1.042,54.988 C0.471,54.988 0.007,54.536 0.007,53.978 C0.007,53.421 0.471,52.968 1.042,52.968 L1.042,52.968 ZM89.028,43.425 L87.911,43.425 L87.911,18.986 L88.498,19.260 C88.628,19.320 88.768,19.350 88.907,19.350 C89.088,19.350 89.268,19.300 89.425,19.199 C89.704,19.022 89.872,18.715 89.872,18.385 L89.872,14.505 C89.872,14.130 89.656,13.788 89.315,13.630 L85.990,12.078 L85.990,5.804 C85.990,5.271 85.558,4.838 85.024,4.838 L79.281,4.838 C78.748,4.838 78.315,5.271 78.315,5.804 L78.315,8.496 L60.308,0.091 C60.026,-0.041 59.698,-0.029 59.426,0.124 L42.086,9.865 C41.905,9.967 41.765,10.123 41.681,10.306 L43.525,11.341 L43.525,11.273 L59.940,2.050 L87.942,15.120 L87.942,16.868 L60.308,3.970 C60.178,3.909 60.039,3.880 59.899,3.880 C59.736,3.880 59.573,3.921 59.426,4.003 L44.945,12.139 L46.916,13.247 L59.940,5.930 L85.980,18.084 L85.980,43.425 L52.314,43.425 L52.314,45.356 L86.946,45.356 L89.028,45.356 C89.561,45.356 89.993,44.924 89.993,44.391 C89.993,43.858 89.561,43.425 89.028,43.425 L89.028,43.425 ZM64.764,11.061 C64.762,11.047 64.761,11.032 64.759,11.019 C64.757,11.002 64.754,10.986 64.751,10.971 C64.748,10.953 64.745,10.937 64.741,10.921 C64.738,10.907 64.735,10.894 64.731,10.882 C64.726,10.864 64.720,10.846 64.715,10.829 C64.711,10.817 64.706,10.805 64.702,10.794 C64.695,10.777 64.688,10.759 64.680,10.742 C64.675,10.731 64.669,10.719 64.664,10.707 C64.656,10.692 64.648,10.677 64.639,10.662 C64.631,10.649 64.624,10.636 64.616,10.623 C64.607,10.611 64.600,10.598 64.590,10.585 C64.581,10.572 64.571,10.559 64.560,10.545 C64.552,10.534 64.543,10.525 64.535,10.514 C64.523,10.500 64.510,10.487 64.498,10.474 C64.490,10.465 64.480,10.456 64.471,10.447 C64.458,10.434 64.445,10.422 64.431,10.410 C64.420,10.401 64.410,10.392 64.399,10.384 C64.386,10.374 64.373,10.364 64.359,10.354 C64.346,10.345 64.332,10.335 64.318,10.326 C64.306,10.319 64.295,10.312 64.282,10.304 C64.265,10.295 64.248,10.286 64.230,10.277 C64.223,10.273 64.217,10.270 64.210,10.266 L60.871,8.708 C60.539,8.553 60.163,8.603 59.888,8.807 C59.870,8.816 59.853,8.824 59.836,8.834 L49.448,14.669 L51.419,15.777 L55.132,13.691 L55.132,23.179 L54.275,23.179 C54.275,23.535 54.108,24.460 53.797,24.641 C53.233,24.971 52.875,24.838 52.314,24.885 L52.314,25.110 L63.802,25.110 C64.336,25.110 64.768,24.678 64.768,24.144 L64.768,11.142 C64.768,11.134 64.766,11.127 64.766,11.119 C64.766,11.100 64.765,11.081 64.764,11.061 L64.764,11.061 ZM57.063,23.179 L57.063,12.606 L60.508,10.670 L62.837,11.757 L62.837,23.179 L57.063,23.179 L57.063,23.179 L57.063,23.179 ZM83.522,19.281 L68.143,12.102 C67.998,12.035 67.846,12.006 67.697,12.012 C67.154,11.994 66.698,12.433 66.698,12.977 L66.698,24.144 C66.698,24.678 67.132,25.110 67.664,25.110 L83.114,25.110 C83.647,25.110 84.079,24.678 84.079,24.144 L84.079,20.156 C84.079,19.780 83.862,19.439 83.522,19.281 L83.522,19.281 ZM68.630,14.461 L74.423,17.165 L74.423,23.179 L68.630,23.179 L68.630,14.461 L68.630,14.461 ZM82.148,23.179 L76.354,23.179 L76.354,18.067 L82.148,20.771 L82.148,23.179 L82.148,23.179 ZM83.114,27.014 L67.664,27.014 C67.132,27.014 66.698,27.447 66.698,27.979 L66.698,40.542 C66.698,41.076 67.132,41.508 67.664,41.508 L83.114,41.508 C83.647,41.508 84.079,41.076 84.079,40.542 L84.079,27.979 C84.079,27.447 83.647,27.014 83.114,27.014 L83.114,27.014 ZM68.630,28.945 L74.423,28.945 L74.423,39.577 L68.630,39.577 L68.630,28.945 L68.630,28.945 ZM82.148,39.577 L76.354,39.577 L76.354,28.945 L82.148,28.945 L82.148,39.577 L82.148,39.577 ZM63.802,27.014 L52.314,27.014 L52.314,28.945 L55.132,28.945 L55.132,39.577 L52.314,39.577 L52.314,41.508 L63.802,41.508 C64.336,41.508 64.768,41.076 64.768,40.542 L64.768,27.979 C64.768,27.447 64.336,27.014 63.802,27.014 L63.802,27.014 ZM62.837,39.577 L57.063,39.577 L57.063,28.945 L62.837,28.945 L62.837,39.577 L62.837,39.577 ZM80.247,9.363 L80.247,6.770 L84.059,6.770 L84.059,11.177 L80.245,9.397 C80.245,9.385 80.247,9.374 80.247,9.363 L80.247,9.363 ZM27.058,19.132 C27.059,19.118 27.061,19.103 27.063,19.088 C27.065,19.071 27.068,19.054 27.071,19.037 C27.074,19.020 27.078,19.003 27.082,18.986 C27.085,18.972 27.089,18.959 27.093,18.945 C27.098,18.927 27.104,18.908 27.110,18.890 C27.114,18.877 27.119,18.865 27.124,18.853 C27.131,18.835 27.139,18.817 27.147,18.799 C27.153,18.787 27.159,18.775 27.165,18.763 C27.174,18.747 27.182,18.731 27.191,18.715 C27.200,18.701 27.208,18.689 27.216,18.675 C27.225,18.661 27.234,18.649 27.243,18.636 C27.254,18.621 27.265,18.607 27.276,18.593 C27.285,18.582 27.294,18.571 27.303,18.561 C27.316,18.546 27.329,18.532 27.342,18.519 C27.352,18.509 27.361,18.499 27.372,18.490 C27.385,18.477 27.400,18.465 27.414,18.452 C27.426,18.443 27.437,18.433 27.449,18.424 C27.463,18.414 27.477,18.403 27.491,18.393 C27.506,18.383 27.521,18.374 27.536,18.365 C27.548,18.357 27.561,18.349 27.574,18.342 C27.592,18.331 27.611,18.322 27.630,18.313 C27.637,18.309 27.644,18.305 27.651,18.302 L31.231,16.673 C31.588,16.510 31.990,16.563 32.286,16.776 C32.304,16.785 32.323,16.793 32.341,16.803 L45.117,23.802 C45.462,23.991 45.653,24.344 45.645,24.705 C45.645,24.707 45.645,24.710 45.645,24.712 L45.645,32.811 C45.645,33.368 45.182,33.821 44.610,33.821 L28.089,33.821 C27.517,33.821 27.054,33.368 27.054,32.811 L27.054,19.217 C27.054,19.209 27.055,19.201 27.055,19.193 C27.055,19.173 27.056,19.153 27.058,19.132 L27.058,19.132 ZM43.575,25.273 L37.385,21.883 L37.385,31.802 L43.575,31.802 L43.575,25.273 L43.575,25.273 ZM35.314,31.802 L35.314,20.748 L31.620,18.724 L29.124,19.860 L29.124,31.802 L35.314,31.802 L35.314,31.802 L35.314,31.802 ZM6.946,27.726 L23.435,20.221 C23.590,20.151 23.753,20.121 23.913,20.127 C24.495,20.108 24.983,20.567 24.983,21.136 L24.983,32.811 C24.983,33.368 24.519,33.821 23.948,33.821 L7.384,33.821 C6.812,33.821 6.348,33.368 6.348,32.811 L6.348,28.641 C6.348,28.249 6.581,27.892 6.946,27.726 L6.946,27.726 ZM22.912,22.687 L16.701,25.514 L16.701,31.802 L22.912,31.802 L22.912,22.687 L22.912,22.687 ZM8.419,31.802 L14.630,31.802 L14.630,26.457 L8.419,29.284 L8.419,31.802 L8.419,31.802 ZM7.384,35.811 L23.948,35.811 C24.519,35.811 24.983,36.263 24.983,36.821 L24.983,49.955 C24.983,50.513 24.519,50.965 23.948,50.965 L7.384,50.965 C6.812,50.965 6.348,50.513 6.348,49.955 L6.348,36.821 C6.348,36.263 6.812,35.811 7.384,35.811 L7.384,35.811 ZM22.912,37.830 L16.701,37.830 L16.701,48.946 L22.912,48.946 L22.912,37.830 L22.912,37.830 ZM8.419,48.946 L14.630,48.946 L14.630,37.830 L8.419,37.830 L8.419,48.946 L8.419,48.946 ZM28.089,35.811 L44.610,35.811 C45.182,35.811 45.645,36.263 45.645,36.821 L45.645,49.955 C45.645,50.513 45.182,50.965 44.610,50.965 L28.089,50.965 C27.517,50.965 27.054,50.513 27.054,49.955 L27.054,36.821 C27.054,36.263 27.517,35.811 28.089,35.811 L28.089,35.811 ZM43.575,37.830 L37.385,37.830 L37.385,48.946 L43.575,48.946 L43.575,37.830 L43.575,37.830 ZM29.124,48.946 L35.314,48.946 L35.314,37.830 L29.124,37.830 L29.124,48.946 L29.124,48.946 ZM10.457,17.358 L10.457,14.646 L6.370,14.646 L6.370,19.253 L10.459,17.392 C10.458,17.380 10.457,17.369 10.457,17.358 L10.457,17.358 ZM49.830,19.354 L32.230,9.712 L2.207,23.376 L2.207,25.204 L31.836,11.719 C31.975,11.656 32.124,11.624 32.273,11.624 C32.448,11.624 32.623,11.668 32.780,11.753 L49.830,21.093 L49.830,19.354 L49.830,19.354 ZM47.727,52.968 L47.727,22.291 C47.727,22.280 47.728,22.270 47.728,22.259 L32.230,13.768 L4.310,26.475 L4.310,52.968 L47.727,52.968 L47.727,52.968 Z"/>
</svg>
